X:1
T: Little Agnes
N:
C:
S: Play  3  times
A:
O:
R:
M:6/8
K:Am
I:speed 150
%W: A1
% voice 1 (1 lines, 27 notes)
K:Am
M:6/8
L:1/16
A2 |A3 B A2 ^G2 E2 A2 A3 B c2 B2 G2 c2 c3 d e2 f4 e2 d6 G6 |A4 e2 e2 d4 c6c4 A2
%W: A2
% voice 1 (1 lines, 26 notes)
A3 B A2 ^G2 E2 A2 A3 B c2 B2 G2 c2 |c3 d e2 f4 e2 d6 G6 A4 e2 e2 d4 c6c4 c2 |
%W: B1
% voice 1 (1 lines, 32 notes)
c3 d e2 d2 B2 e2 c3 B A2 ^G2 E2 A2 B6B4 B2 c4 A2 A4 c2 |d4 B2 B4 d2 e3 d c2 B3 A B2 A6A4 c2
%W: B2
% voice 1 (1 lines, 31 notes)
c3 d e2 d2 B2 e2 |c3 B A2 ^G2 E2 A2 B6B4 B2 c4 A2 A4 c2 d4 B2 B4 d2 |e3 d c2 B3 A B2 A6A4 ||
